X:1
T:Mother's Delight
R:reel
N:PARECIDA A LA VERSIÓN DE FLEADH
S:Paul O'Shaughnessy
Z:Juergen.Gier@post.rwth-aachen.de
M:C|
L:1/8
K:EDor
"Em"G2GE "D"~A3F|"Em"GFGA "D"AFDF|"Em"Eeed efgf|efde "Bm"BcdB|"Em"Beed BABc|"D"dcdA "Bm"FDDF|"Em"Eeed BABc|"D"dBAF "Em"FEEF:|
|:GBeB GEEG|"D"FAdA "Bm"FDDF|"Em"GBeB GEEG|"Bm"FEDF "Em"EDEF|GBeB GEEG|"D"FAdA "Bm"FDFD|"Em"GBAF GFED|"G"DGFG "Em"EDEF:|

